assets/src/images/icons/ic_fany_time.svg

<svg width="106" height="102" viewBox="0 0 106 102" fill="none" xmlns="http://www.w3.org/2000/svg">
<g filter="url(#filter0_d)">
<path fill-rule="evenodd" clip-rule="evenodd" d="M55.0239 52.4283C61.2173 52.4283 66.2381 47.4079 66.2381 41.2145C66.2381 35.0212 61.2177 30.0004 55.0243 30C48.831 30 43.8102 35.0208 43.8098 41.2141C43.8166 47.4047 48.8334 52.4214 55.0239 52.4283ZM55.0239 31.6517C60.3052 31.6517 64.5864 35.9333 64.5864 41.2145C64.5864 46.4958 60.3052 50.777 55.0239 50.7766C49.7427 50.7766 45.4615 46.4954 45.4615 41.2141C45.4675 35.9353 49.7455 31.6577 55.0239 31.6517ZM32.6005 71.3165C32.6791 71.7657 33.107 72.0661 33.5562 71.9875L40.2988 70.808C40.748 70.7294 41.0484 70.3015 40.9698 69.8523L40.8383 69.0995L42.411 67.8224C43.0271 67.3091 43.8191 67.0563 44.6183 67.1163L55.6139 67.92C55.6324 67.9216 55.6506 67.922 55.6691 67.9224H55.7369C58.1632 67.9172 60.5254 67.1442 62.4847 65.7131C62.5162 65.6901 62.546 65.6647 62.5742 65.6373L75.6707 52.8138C75.9832 52.5081 76.003 52.0121 75.7167 51.6823C74.2053 49.9379 71.5907 49.6887 69.7773 51.1157L63.7618 55.6139C62.5109 54.0917 60.5383 53.3598 58.5975 53.6977L52.4484 54.7731C51.4686 54.9433 50.4633 54.8909 49.5064 54.6199L48.8189 54.4235C45.2853 53.4086 41.4783 54.1989 38.6403 56.5365L38.3814 55.0558C38.3027 54.6066 37.8749 54.3062 37.4257 54.3848L30.6835 55.5643C30.2343 55.6433 29.9339 56.0712 30.0125 56.5204L32.6005 71.3165ZM48.3672 56.0127L49.0548 56.2087C50.2512 56.5478 51.5081 56.6131 52.7331 56.4006L58.8822 55.3252C60.6439 55.0191 62.3823 55.9756 63.0666 57.6277L53.8614 59.2378C53.4388 59.3112 53.1428 59.6955 53.1799 60.1225C53.2166 60.5496 53.5739 60.8774 54.0025 60.8774C54.0505 60.8774 54.0985 60.8734 54.1461 60.8649L64.2533 59.0971C64.7025 59.018 65.003 58.5902 64.9243 58.141C64.8586 57.7648 64.7533 57.3962 64.6106 57.0418L70.7745 52.4327L70.7915 52.4194C71.6818 51.7154 72.9198 51.65 73.8791 52.2569L61.4613 64.4191C59.7943 65.6223 57.7922 66.2728 55.7365 66.278H55.7054L44.7381 65.4731C43.5162 65.3804 42.3061 65.7655 41.3629 66.5478L40.5121 67.2377L38.977 58.4608C41.425 55.9913 45.0248 55.053 48.3672 56.0127ZM36.897 56.1542L39.2008 69.3233L34.0852 70.2185L31.7815 57.0494L36.897 56.1542ZM59.0664 42.9481H54.4461C53.9739 42.932 53.5953 42.5529 53.5787 42.0811V36.0168C53.5787 35.5603 53.9485 35.1909 54.4046 35.1909C54.8606 35.1909 55.2304 35.5603 55.2304 36.0168V41.2964H59.0664C59.5225 41.2964 59.8923 41.6662 59.8923 42.1222C59.8923 42.5783 59.5225 42.9481 59.0664 42.9481Z" fill="#0EF5FF"/>
</g>
<defs>
<filter id="filter0_d" x="0" y="0" width="105.919" height="102" filterUnits="userSpaceOnUse" color-interpolation-filters="sRGB">
<feFlood flood-opacity="0" result="BackgroundImageFix"/>
<feColorMatrix in="SourceAlpha" type="matrix" values="0 0 0 0 0 0 0 0 0 0 0 0 0 0 0 0 0 0 127 0"/>
<feOffset/>
<feGaussianBlur stdDeviation="15"/>
<feColorMatrix type="matrix" values="0 0 0 0 0.054902 0 0 0 0 0.960784 0 0 0 0 1 0 0 0 0.8 0"/>
<feBlend mode="normal" in2="BackgroundImageFix" result="effect1_dropShadow"/>
<feBlend mode="normal" in="SourceGraphic" in2="effect1_dropShadow" result="shape"/>
</filter>
</defs>
</svg>

<svg width="106" height="102" viewBox="0 0 106 102" fill="none" xmlns="http://www.w3.org/2000/svg"><g filter="url(#filter0_d)"><path fill-rule="evenodd" clip-rule="evenodd" d="M55.024 52.428c6.193 0 11.214-5.02 11.214-11.213C66.238 35.02 61.218 30 55.024 30c-6.193 0-11.214 5.02-11.214 11.214.007 6.19 5.023 11.207 11.214 11.214zm0-20.776c5.281 0 9.562 4.281 9.562 9.563a9.562 9.562 0 01-9.562 9.562 9.562 9.562 0 01-9.563-9.563 9.573 9.573 0 019.563-9.562zM32.6 71.317c.08.449.507.75.956.67l6.743-1.179a.826.826 0 00.67-.956l-.13-.752 1.572-1.278a3.088 3.088 0 012.207-.706l10.996.804a.849.849 0 00.055.002h.068a11.481 11.481 0 006.748-2.209.836.836 0 00.09-.076L75.67 52.814a.826.826 0 00.046-1.132 4.322 4.322 0 00-5.94-.566l-6.015 4.498a5.47 5.47 0 00-5.165-1.916l-6.149 1.075c-.98.17-1.985.118-2.942-.153l-.687-.197a11.163 11.163 0 00-10.179 2.113l-.259-1.48a.826.826 0 00-.955-.671l-6.743 1.18a.826.826 0 00-.67.955L32.6 71.317zm15.767-15.304l.688.196a8.291 8.291 0 003.678.192l6.15-1.076a3.82 3.82 0 014.184 2.303l-9.206 1.61a.826.826 0 10.285 1.627l10.107-1.768a.825.825 0 00.671-.956 5.458 5.458 0 00-.313-1.1l6.163-4.608.017-.014a2.674 2.674 0 013.088-.162L61.461 64.419a9.824 9.824 0 01-5.724 1.859h-.032l-10.967-.805a4.727 4.727 0 00-3.375 1.075l-.85.69-1.536-8.777a9.522 9.522 0 019.39-2.448zm-11.47.141l2.304 13.17-5.116.895-2.303-13.17 5.115-.895zm22.17-13.206h-4.62a.899.899 0 01-.868-.867v-6.064a.826.826 0 111.651 0v5.28h3.836a.826.826 0 010 1.651z" fill="#0EF5FF"/></g><defs><filter id="filter0_d" x="0" y="0" width="105.919" height="102" filterUnits="userSpaceOnUse" color-interpolation-filters="sRGB"><feFlood flood-opacity="0" result="BackgroundImageFix"/><feColorMatrix in="SourceAlpha" values="0 0 0 0 0 0 0 0 0 0 0 0 0 0 0 0 0 0 127 0"/><feOffset/><feGaussianBlur stdDeviation="15"/><feColorMatrix values="0 0 0 0 0.054902 0 0 0 0 0.960784 0 0 0 0 1 0 0 0 0.8 0"/><feBlend in2="BackgroundImageFix" result="effect1_dropShadow"/><feBlend in="SourceGraphic" in2="effect1_dropShadow" result="shape"/></filter></defs></svg>
